X:1129
T:Bank of Ireland, The
R:reel
Z:id:hn-reel-26
M:C|
K:Dmix
c2AB cBAG|EGDG EGAB|c2AB cBAG|Add^c dfed|
cAAB cABG|~E3D EGAB|cAAB cABG|1 Add^c d2AB:|2 Add^c d3e||
|:~f3d e2fe|dfed ^cA~A2|~f3d e2fg|afge d2^cd|
ea~a2 efge|dfed cAGE| Add^c defg|1 afge d3e:|2 afge d2||


